X: 30661
T: Open Door, The
R: jig
M: 6/8
K: Amixolydian
Ecc B2A|F2f fef|ece fec|BcB BAF|
Ecc B2A|F2f fef|ece fec|1 BAA A2F:|2 BAA A2B||
|:cee cee|fdf fdf|ece ece|dcB BAF|
EcE B2A|F2f fef|ece fec|1 BAA A2B:|2 BAA A2F||

